glass/images/mail.svg

<svg width="21" height="15" viewBox="0 0 21 15" fill="none" xmlns="http://www.w3.org/2000/svg">
<path fill-rule="evenodd" clip-rule="evenodd" d="M19.4666 0.973831C19.3377 1.04379 19.1829 1.08785 19.0834 1.18734C16.3946 3.87599 13.7117 6.57039 11.0273 9.26346C10.5077 9.78476 10.1895 9.78555 9.66913 9.26361C6.97528 6.56147 4.28214 3.85869 1.58939 1.15552C1.49898 1.0648 1.41465 0.967831 1.26367 0.805012C1.57983 0.753608 1.81948 0.680884 2.05929 0.680647C7.58518 0.674172 13.1113 0.674172 18.6372 0.680568C18.8773 0.680884 19.1173 0.75345 19.3572 0.792378C19.3937 0.852863 19.4302 0.913268 19.4666 0.973831Z" fill="#0047FF"/>
<path fill-rule="evenodd" clip-rule="evenodd" d="M19.3858 14.7655C19.1171 14.8093 18.8776 14.8822 18.6381 14.8823C13.1135 14.8888 7.58898 14.8887 2.06451 14.8826C1.82423 14.8823 1.58395 14.8117 1.3252 14.7709C3.38309 12.7351 5.39788 10.7418 7.45506 8.70652C7.9177 9.17405 8.45637 9.72465 9.002 10.2681C9.50885 10.773 10.1278 10.9687 10.8082 10.7608C11.1449 10.6579 11.4733 10.4438 11.7375 10.2048C12.2825 9.71178 12.7821 9.16828 13.2539 8.69238C15.2926 10.7117 17.3149 12.7145 19.3858 14.7655Z" fill="#0047FF"/>
<path fill-rule="evenodd" clip-rule="evenodd" d="M0.358706 13.808C0.321199 13.5691 0.246739 13.3133 0.246107 13.0573C0.238369 9.54505 0.238053 6.03268 0.246502 2.52039C0.247134 2.25382 0.327201 1.9874 0.369366 1.72754C2.42442 3.76348 4.44805 5.76832 6.45833 7.75989C4.43636 9.7648 2.41416 11.77 0.358706 13.808Z" fill="#0047FF"/>
<path fill-rule="evenodd" clip-rule="evenodd" d="M14.2139 7.7965C16.253 5.7754 18.276 3.77033 20.3271 1.7373C20.3681 1.98674 20.4489 2.25245 20.4495 2.51839C20.458 6.03076 20.458 9.54313 20.4493 13.0555C20.4487 13.3178 20.3649 13.58 20.3178 13.8538C18.2582 11.8099 16.2434 9.81057 14.2139 7.7965Z" fill="#0047FF"/>
</svg>

<svg width="21" height="15" viewBox="0 0 21 15" fill="none" xmlns="http://www.w3.org/2000/svg"><path fill-rule="evenodd" clip-rule="evenodd" d="M19.467.974c-.13.07-.284.114-.384.213-2.688 2.689-5.371 5.383-8.056 8.076-.52.522-.837.523-1.358 0L1.59 1.157c-.09-.091-.174-.188-.325-.351.316-.051.555-.124.795-.124C7.585.674 13.111.674 18.637.68c.24 0 .48.072.72.111l.11.182z" fill="#0047FF"/><path fill-rule="evenodd" clip-rule="evenodd" d="M19.386 14.765c-.269.044-.508.117-.748.117-5.525.007-11.049.007-16.573 0-.24 0-.481-.07-.74-.111l6.13-6.064c.463.467 1.001 1.018 1.547 1.561.507.505 1.126.7 1.806.493.337-.103.665-.317.93-.556.545-.493 1.044-1.037 1.516-1.513l6.132 6.073zM.359 13.808c-.038-.239-.112-.495-.113-.75C.238 9.544.238 6.032.246 2.52c.001-.266.081-.533.123-.792L6.46 7.76l-6.1 6.048zM14.214 7.796l6.113-6.059c.041.25.122.515.122.781.009 3.513.009 7.025 0 10.538 0 .262-.084.524-.131.798l-6.104-6.057z" fill="#0047FF"/></svg>
